X:875
T:Aulla un perru (CT 031)
C:Tradicional
S:Msica Tradicional Asturiana, (C) Tello & Tito. Asturies, 2001.
S:http://pagina.de/MusTradAst <telloytito@asturies.org>
N:Cancin de empleo indeterminado, transcrita en Trubia, ayuntamiento de Uviu.
O:Trubia (Uviu)
A:Asturies
Z:Cancioneru de Torner 031
M:3/4
L:1/8
Q:1/4=108
W:Aulla un perro, madre,
W:junto a la puerta;
W:cuando amanezca el da
W:ya estar muerta.
W:
W:-Si ya vas mejorando,
W:no digas eso.
W:-Madre ma del alma,
W:dame otro beso.
K:C
|: d>d d2 c_B|d2 c4|_B2 d2 B2|A2 G4|
d>d d2 c_B|d2 c4|_B2 d2 B2|A2 G4|
G>A _B2 AG|A2 c4|_B2 d2 B2|A2 G4|
G>A _B2 AG|A2 c4|_B2 d2 B2|A2 G4 :||
